logo.svg

<svg xmlns="http://www.w3.org/2000/svg" viewBox="0 0 554 110" width="554" height="110">
	<style>
		tspan { white-space:pre }
		.shp0 { fill: #ff0000 } 
		.shp1 { fill: #ffffff } 
		.shp2 { fill: #b2ebf2 } 
		.txt3 { font-size: 100px;fill: #b2ebf2;font-weight: 400;font-family: "Inter-Regular", "Inter" } 
	</style>
	<path id="Layer" class="shp0" d="M154.3 17.5C153.85 15.85 153.2 14.27 152.34 12.8C151.49 11.32 150.45 9.97 149.24 8.76C148.03 7.55 146.68 6.51 145.2 5.66C143.73 4.8 142.15 4.15 140.5 3.7C128.4 0.4 79.7 0.4 79.7 0.4C79.7 0.4 31 0.5 18.9 3.8C17.25 4.25 15.67 4.9 14.2 5.76C12.72 6.61 11.37 7.65 10.16 8.86C8.95 10.07 7.91 11.42 7.06 12.9C6.2 14.37 5.55 15.95 5.1 17.6C1.44 39.1 0.02 71.86 5.2 92.5C5.65 94.15 6.3 95.73 7.16 97.2C8.01 98.68 9.05 100.03 10.26 101.24C11.47 102.45 12.82 103.49 14.3 104.34C15.77 105.2 17.35 105.85 19 106.3C31.1 109.6 79.8 109.6 79.8 109.6C79.8 109.6 128.5 109.6 140.6 106.3C142.25 105.85 143.83 105.2 145.3 104.34C146.78 103.49 148.13 102.45 149.34 101.24C150.55 100.03 151.59 98.68 152.44 97.2C153.3 95.73 153.95 94.15 154.4 92.5C158.26 70.97 159.45 38.23 154.3 17.5Z" />
	<path id="Layer" class="shp1" d="M64.2 78.4L104.6 55L64.2 31.6L64.2 78.4Z" />
	<g id="Layer">
		<path id="Layer" fill-rule="evenodd" class="shp2" d="M221.3 90C220 85.6 219.4 79.8 219.4 72.5L219.4 62.6C219.4 55.3 220.1 49.3 221.6 44.9C223.1 40.4 225.4 37.2 228.6 35.2C231.8 33.2 235.9 32.1 241 32.1C246 32.1 250.1 33.1 253.1 35.2C256.1 37.3 258.4 40.5 259.8 44.9C261.2 49.3 261.9 55.2 261.9 62.5L261.9 72.4C261.9 79.7 261.2 85.5 259.8 89.9C258.4 94.3 256.2 97.5 253.1 99.6C250 101.6 245.8 102.7 240.6 102.7C235.2 102.8 231 101.7 227.9 99.7C224.8 97.6 222.6 94.4 221.3 90ZM246.5 78.1L246.5 56.8C246.5 51.9 246.1 48.3 245.2 46.1C244.3 43.8 242.8 42.7 240.7 42.7C238.6 42.7 237.2 43.8 236.3 46.1C235.4 48.4 235 51.9 235 56.8L235 78.1C235 83.1 235.4 86.8 236.2 89C237 91.2 238.5 92.3 240.7 92.3C242.8 92.3 244.3 91.2 245.2 89C246.1 86.8 246.5 83.1 246.5 78.1ZM464.4 76.2L464.8 86.1C465.1 88.3 465.6 89.9 466.4 90.9C467.2 91.9 468.5 92.4 470.2 92.4C472.5 92.4 474.1 91.5 474.9 89.7C475.8 87.9 476.2 84.9 476.3 80.8L489.6 81.6C489.7 82.2 489.7 83 489.7 84C489.7 90.3 488 95 484.5 98.1C481 101.2 476.2 102.8 469.9 102.8C462.3 102.8 457 100.4 454 95.7C451 91 449.4 83.6 449.4 73.7L449.4 61.6C449.74 44.6 452.73 32.15 470.3 32.1C475.6 32.1 479.6 33.1 482.4 35C485.2 36.9 487.2 39.9 488.4 44C489.6 48.1 490.1 53.7 490.1 60.9L490.1 72.6L464.4 72.6L464.4 76.2ZM464.8 48.6C464.5 50.8 464.4 58.6 464.4 58.6L464.4 63.5L475.6 63.5L475.6 58.6C475.6 63.5 475.5 50.9 475.2 48.6C474.9 46.3 474.4 44.7 473.6 43.8C472.8 42.9 471.6 42.4 470 42.4C468.3 42.5 467.1 43 466.4 43.9C465.6 44.9 465.1 46.4 464.8 48.6ZM190.5 71.4L173 8.2L188.3 8.2C188.3 8.2 195.45 39.9 197.9 54.8L198.3 54.8C201.08 38.98 208.1 8.2 208.1 8.2L223.4 8.2L205.7 71.3L205.7 101.6L190.6 101.6L190.6 71.4L190.5 71.4Z" />
		<path id="A" class="shp2" d="M311.5 33.4L311.5 101.7L299.5 101.7L298.2 93.3L297.9 93.3C294.6 99.6 289.7 102.8 283.2 102.8C271.43 102.77 270.12 92.8 270 84.4L270 33.4L285.4 33.4L285.4 83.5C285.4 86.5 285.7 88.7 286.4 90C287.82 92.78 291.5 92.07 293.5 90.7C293.79 90.51 294.06 90.29 294.32 90.06C294.58 89.83 294.82 89.59 295.05 89.33C295.28 89.07 295.49 88.79 295.68 88.5C295.87 88.21 296.05 87.91 296.2 87.6L296.2 33.4L311.5 33.4Z" />
		<path id="Layer" fill-rule="evenodd" class="shp2" d="M338 20.6L338 101.7L323 101.7L323 20.6L307.7 20.6L307.7 8.2L353.2 8.2L353.2 20.6L338 20.6ZM441.2 44.3C442.1 48.6 442.6 54.6 442.6 62.2L442.6 73C442.6 83.1 441.3 90.6 438.9 95.4C436.4 100.2 432.6 102.6 427.4 102.6C424.5 102.6 421.9 101.9 419.5 100.6C418.94 100.28 418.41 99.91 417.9 99.51C417.39 99.12 416.92 98.68 416.47 98.22C416.02 97.75 415.61 97.26 415.23 96.74C414.85 96.22 414.5 95.67 414.2 95.1L413.9 95.1L412.3 101.6L399.6 101.6L399.6 4.7L414.4 4.7L414.4 40.7L414.5 40.7C415.9 38.1 417.7 36 420.2 34.4C420.78 34.01 421.39 33.66 422.02 33.36C422.65 33.06 423.3 32.81 423.97 32.61C424.64 32.41 425.32 32.25 426.01 32.15C426.7 32.05 427.4 32 428.1 32C431.8 32 434.6 33 436.7 34.9C438.8 36.9 440.3 40 441.2 44.3ZM427.1 63.3C427.1 57.9 426.9 53.8 426.6 50.9C426.2 48 425.7 45.9 424.8 44.7C423.06 42.2 419.3 42.23 417.1 44.7C415.8 45.9 414.9 47.4 414.4 49.3L414.4 88.1C415.64 90.2 417.4 91.6 420.5 91.7C422.1 91.7 423.4 91.1 424.4 89.9C425.4 88.7 426.1 86.7 426.5 83.9C426.9 81.1 427.1 77.2 427.1 72.2L427.1 63.3Z" />
		<path id="A" class="shp2" d="M390.4 33.4L390.4 101.7L378.4 101.7L377.1 93.3L376.8 93.3C373.5 99.6 368.6 102.8 362.1 102.8C350.33 102.77 349.02 92.8 348.9 84.4L348.9 33.4L364.3 33.4L364.3 83.5C364.3 86.5 364.6 88.7 365.3 90C366.72 92.78 370.4 92.07 372.4 90.7C372.69 90.51 372.96 90.29 373.22 90.06C373.48 89.83 373.72 89.59 373.95 89.33C374.18 89.07 374.39 88.79 374.58 88.5C374.77 88.21 374.95 87.91 375.1 87.6L375.1 33.4L390.4 33.4Z" />
	</g>
	<text id="+ " style="transform: matrix(1,0,0,1,497,97)" >
		<tspan x="0" y="0" class="txt3">+</tspan>
	</text>
</svg>

<svg xmlns="http://www.w3.org/2000/svg" xmlns:xlink="http://www.w3.org/1999/xlink" viewBox="0 0 492 110"><path d="M154.3 17.5a19.6 19.6 0 0 0-13.8-13.8C128.4.4 79.7.4 79.7.4S31 .5 18.9 3.8A19.6 19.6 0 0 0 5.1 17.6C1.44 39.1.02 71.86 5.2 92.5A19.6 19.6 0 0 0 19 106.3c12.1 3.3 60.8 3.3 60.8 3.3s48.7 0 60.8-3.3a19.6 19.6 0 0 0 13.8-13.8c3.86-21.53 5.05-54.27-.1-75z" fill="red"/><path fill="#fff" d="M64.2 78.4L104.6 55 64.2 31.6z"/><g fill="#282828"><path d="M227.9 99.7c-3.1-2.1-5.3-5.3-6.6-9.7s-1.9-10.2-1.9-17.5v-9.9c0-7.3.7-13.3 2.2-17.7 1.5-4.5 3.8-7.7 7-9.7s7.3-3.1 12.4-3.1c5 0 9.1 1 12.1 3.1s5.3 5.3 6.7 9.7 2.1 10.3 2.1 17.6v9.9c0 7.3-.7 13.1-2.1 17.5s-3.6 7.6-6.7 9.7c-3.1 2-7.3 3.1-12.5 3.1-5.4.1-9.6-1-12.7-3zM245.2 89c.9-2.2 1.3-5.9 1.3-10.9V56.8c0-4.9-.4-8.5-1.3-10.7-.9-2.3-2.4-3.4-4.5-3.4s-3.5 1.1-4.4 3.4-1.3 5.8-1.3 10.7v21.3c0 5 .4 8.7 1.2 10.9s2.3 3.3 4.5 3.3c2.1 0 3.6-1.1 4.5-3.3zm219.2-16.3v3.5l.4 9.9c.3 2.2.8 3.8 1.6 4.8s2.1 1.5 3.8 1.5c2.3 0 3.9-.9 4.7-2.7.9-1.8 1.3-4.8 1.4-8.9l13.3.8c.1.6.1 1.4.1 2.4 0 6.3-1.7 11-5.2 14.1s-8.3 4.7-14.6 4.7c-7.6 0-12.9-2.4-15.9-7.1s-4.6-12.1-4.6-22V61.6c.34-17 3.33-29.45 20.9-29.5 5.3 0 9.3 1 12.1 2.9s4.8 4.9 6 9 1.7 9.7 1.7 16.9v11.7h-25.7zm2-28.8c-.8 1-1.3 2.5-1.6 4.7s-.4 10-.4 10v4.9h11.2v-4.9c0 4.9-.1-7.7-.4-10s-.8-3.9-1.6-4.8-2-1.4-3.6-1.4c-1.7.1-2.9.6-3.6 1.5zM190.5 71.4L173 8.2h15.3s7.15 31.7 9.6 46.6h.4c2.78-15.82 9.8-46.6 9.8-46.6h15.3l-17.7 63.1v30.3h-15.1V71.4z"/><path id="A" d="M311.5 33.4v68.3h-12l-1.3-8.4h-.3c-3.3 6.3-8.2 9.5-14.7 9.5-11.77-.03-13.08-10-13.2-18.4v-51h15.4v50.1c0 3 .3 5.2 1 6.5 1.42 2.78 5.1 2.07 7.1.7a8 8 0 0 0 2.7-3.1V33.4z" fill="#282828"/><path d="M353.3 20.6H338v81.1h-15V20.6h-15.3V8.2h45.5v12.4zm87.9 23.7c-.9-4.3-2.4-7.4-4.5-9.4-2.1-1.9-4.9-2.9-8.6-2.9a14.1 14.1 0 0 0-7.9 2.4c-2.5 1.6-4.3 3.7-5.7 6.3h-.1v-36h-14.8v96.9h12.7l1.6-6.5h.3a14 14 0 0 0 5.3 5.5c2.4 1.3 5 2 7.9 2 5.2 0 9-2.4 11.5-7.2 2.4-4.8 3.7-12.3 3.7-22.4V62.2c0-7.6-.5-13.6-1.4-17.9zm-14.1 27.9c0 5-.2 8.9-.6 11.7s-1.1 4.8-2.1 6-2.3 1.8-3.9 1.8c-3.1-.1-4.86-1.5-6.1-3.6V49.3c.5-1.9 1.4-3.4 2.7-4.6 2.2-2.47 5.96-2.5 7.7 0 .9 1.2 1.4 3.3 1.8 6.2.3 2.9.5 7 .5 12.4z"/></g><use xlink:href="#A" x="78.9"/></svg>
